modules/hawcons-filled/icons/paperclip.svg

<?xml version="1.0" encoding="UTF-8" standalone="no"?>
<svg width="32px" height="32px" viewBox="0 0 32 32" version="1.1" xmlns="http://www.w3.org/2000/svg" xmlns:xlink="http://www.w3.org/1999/xlink" xmlns:sketch="http://www.bohemiancoding.com/sketch/ns">
    <!-- Generator: Sketch 3.0.3 (7891) - http://www.bohemiancoding.com/sketch -->
    <title>icon 152 paperclip</title>
    <desc>Created with Sketch.</desc>
    <defs></defs>
    <g id="Page-1" stroke="none" stroke-width="1" fill="none" fill-rule="evenodd" sketch:type="MSPage">
        <g id="icon-152-paperclip" sketch:type="MSArtboardGroup" fill="#929292">
            <path d="M16.5,29 C23.4035597,29 29,23.4035597 29,16.5 C29,9.59644029 23.4035597,4 16.5,4 C9.59644029,4 4,9.59644029 4,16.5 C4,23.4035597 9.59644029,29 16.5,29 L16.5,29 Z M20.5961941,17.5606602 L15.6481221,22.5087322 C14.0850996,24.0717547 11.548511,24.0693263 9.98959236,22.5104076 C8.42749519,20.9483105 8.42488312,18.4182626 9.9947088,16.8484369 L17.4082678,9.43487793 C18.3878623,8.45528346 19.9666301,8.4458148 20.9497475,9.42893219 C21.9260582,10.4052429 21.9241313,11.9900822 20.9476831,12.9665304 L13.5299667,20.3842468 C13.1367691,20.7774444 12.5041597,20.7823343 12.1109127,20.3890873 C11.7203884,19.998563 11.724151,19.3616355 12.1088127,18.9769737 L17.0606602,14.0251263 L16.3535534,13.3180195 L11.4019616,18.2696113 C10.6219316,19.0496413 10.617312,20.3097002 11.4038059,21.0961941 C12.1848545,21.8772427 13.4505362,21.8778909 14.228033,21.1003941 L21.662867,13.6655601 C23.0263813,12.3020458 23.020908,10.0858792 21.6568542,8.72182541 C20.2900192,7.35499039 18.0711056,7.35782662 16.7021323,8.72679986 L9.27684734,16.1520848 C7.3273398,18.1015924 7.33383731,21.2688662 9.28248558,23.2175144 C11.235107,25.1701359 14.3941498,25.176918 16.3550993,23.2159685 L21.3033009,18.267767 L20.5961941,17.5606602 L20.5961941,17.5606602 Z" id="paperclip" sketch:type="MSShapeGroup"></path>
        </g>
    </g>
</svg>

<svg width="32" height="32" viewBox="0 0 32 32" xmlns="http://www.w3.org/2000/svg"><path d="M16.5 29C23.404 29 29 23.404 29 16.5S23.404 4 16.5 4 4 9.596 4 16.5 9.596 29 16.5 29zm4.096-11.44l-4.948 4.949a4 4 0 1 1-5.653-5.66l7.413-7.414c.98-.98 2.559-.99 3.542-.006a2.502 2.502 0 0 1-.002 3.538l-7.418 7.417a1.001 1.001 0 1 1-1.421-1.407l4.952-4.952-.707-.707-4.952 4.952c-.78.78-.785 2.04.002 2.826a1.998 1.998 0 0 0 2.824.004l7.435-7.434a3.498 3.498 0 0 0-.006-4.944 3.504 3.504 0 0 0-4.955.005l-7.425 7.425a5 5 0 0 0 .005 7.066 4.994 4.994 0 0 0 7.073-.002l4.948-4.948-.707-.707z" fill="#929292" fill-rule="evenodd"/></svg>
